_site/assets/img/01-4n/IB-IM-4-noten-solo4denoten.svg

<svg clip-rule="evenodd" fill-rule="evenodd" stroke-linejoin="round" stroke-miterlimit="2" viewBox="0 0 210 38" xmlns="http://www.w3.org/2000/svg"><path d="m116.509 9.654v19.882" fill="none" stroke="#000" stroke-width=".78"/><path d="m206.131 9.654v19.882" fill="none" stroke="#000" stroke-width=".78"/><path d="m208.772 9.654v19.882" fill="none" stroke="#000" stroke-width=".78"/><path d="m30.081 16.862v-.842h-1.263v-4.508l-2.504 2.224v2.284h-2.705c.3-.761 1.122-1.803 2.464-3.145 1.222-1.223 1.924-2.305 2.124-3.206h-3.426c-.161 1.963-1.323 4.829-2.545 6.391v.802h4.088c0 .701-.02 1.102-.061 1.202-.12.22-.5.361-1.122.401l-.04.561h4.929l-.08-.581c-.962-.08-1.142-.181-1.142-.681 0-.061 0-.181.02-.381v-.521z" fill-rule="nonzero"/><path d="m30.081 26.936v-.841h-1.263v-4.509l-2.504 2.224v2.285h-2.705c.3-.762 1.122-1.804 2.464-3.146 1.222-1.222 1.924-2.304 2.124-3.206h-3.426c-.161 1.964-1.323 4.829-2.545 6.392v.801h4.088c0 .701-.02 1.102-.061 1.202-.12.221-.5.361-1.122.401l-.04.561h4.929l-.08-.581c-.962-.08-1.142-.18-1.142-.681 0-.06 0-.18.02-.381v-.521z" fill-rule="nonzero"/><g fill="none" stroke="#000"><path d="m.015 29.536h209.067" stroke-width=".47"/><path d="m.015 24.565h209.067" stroke-width=".47"/><path d="m.015 19.595h209.067" stroke-width=".47"/><path d="m.015 14.625h209.067" stroke-width=".47"/><path d="m.015 9.654h209.067" stroke-width=".47"/></g><path d="m14.14 28.876.756 3.678c.04.219.06.417.06.616 0 1.949-1.989 3.579-4.136 3.579-.656 0-1.292-.159-1.889-.457 1.531-.159 2.684-1.094 2.684-2.466 0-1.212-.994-2.485-2.266-2.485-1.451 0-2.445 1.114-2.445 2.565 0 2.028 1.65 3.36 3.638 3.36 2.664 0 4.931-1.73 4.931-4.215 0-.557-.875-4.493-.855-4.354 2.127-1.034 3.578-2.863 3.578-4.792 0-2.644-2.127-4.672-4.771-4.672-.04 0-.318.02-.796.06l-.874-4.195c2.962-2.505 4.314-5.169 4.314-8.092 0-2.247-.895-4.632-2.704-7.137-2.048 1.65-3.221 4.95-3.221 8.469 0 1.253.159 2.465.438 3.619-4.533 3.797-6.8 7.296-6.8 10.497 0 3.758 3.877 6.879 8.092 6.879.934 0 1.63-.139 2.266-.457zm-.059-26.125c.656.676.994 1.472.994 2.406 0 1.929-1.372 4.096-4.056 6.481-.139-.576-.179-1.212-.179-1.908 0-3.34 1.233-7.018 2.883-7.018.139 0 .258.019.358.039zm.417 25.31-1.411-6.641c.278-.02.437-.04.497-.04 1.71 0 2.902 1.611 2.902 3.261 0 1.312-.695 2.465-1.988 3.42zm-1.908-6.561 1.431 6.839c-.696.378-1.471.537-2.406.537-3.22 0-6.004-2.406-6.004-5.328 0-2.645 1.969-5.368 5.686-8.152l.835 3.976c-2.067.438-3.817 2.187-3.817 4.156 0 1.67 1.193 2.843 2.982 3.121-1.093-.676-1.63-1.531-1.63-2.545 0-1.372 1.272-2.386 2.923-2.604z" fill-rule="nonzero"/><path d="m44.593 31.244v-16.619" fill="none" stroke="#000" stroke-width=".47"/><path d="m40.141 34.562c2.047 0 4.572-1.71 4.572-3.459 0-1.054-.934-1.73-2.266-1.73-2.008 0-4.533 1.67-4.533 3.459 0 1.094.974 1.73 2.227 1.73z" fill-rule="nonzero"/><path d="m64.319 26.274v-16.62" fill="none" stroke="#000" stroke-width=".47"/><path d="m59.867 29.592c2.048 0 4.573-1.71 4.573-3.46 0-1.054-.935-1.73-2.267-1.73-2.008 0-4.533 1.671-4.533 3.46 0 1.093.974 1.73 2.227 1.73z" fill-rule="nonzero"/><path d="m84.046 23.789v-16.62" fill="none" stroke="#000" stroke-width=".47"/><path d="m79.593 27.106c2.048 0 4.573-1.709 4.573-3.459 0-1.054-.934-1.73-2.266-1.73-2.008 0-4.533 1.67-4.533 3.46 0 1.093.974 1.729 2.226 1.729z" fill-rule="nonzero"/><path d="m97.248 17.886v16.62" fill="none" stroke="#000" stroke-width=".47"/><path d="m99.32 19.651c2.047 0 4.572-1.71 4.572-3.46 0-1.053-.934-1.729-2.266-1.729-2.008 0-4.533 1.67-4.533 3.459 0 1.094.974 1.73 2.227 1.73z" fill-rule="nonzero"/><path d="m130.954 26.274v-16.62" fill="none" stroke="#000" stroke-width=".47"/><path d="m126.502 29.592c2.047 0 4.572-1.71 4.572-3.46 0-1.054-.934-1.73-2.266-1.73-2.008 0-4.533 1.671-4.533 3.46 0 1.093.974 1.73 2.227 1.73z" fill-rule="nonzero"/><path d="m142.137 34.506h10.562" fill="none" stroke="#000" stroke-width=".78"/><path d="m150.68 33.73v-16.62" fill="none" stroke="#000" stroke-width=".47"/><path d="m146.228 37.047c2.048 0 4.573-1.71 4.573-3.459 0-1.054-.935-1.73-2.267-1.73-2.008 0-4.533 1.67-4.533 3.46 0 1.093.974 1.729 2.227 1.729z" fill-rule="nonzero"/><path d="m170.406 31.244v-16.619" fill="none" stroke="#000" stroke-width=".47"/><path d="m165.954 34.562c2.048 0 4.573-1.71 4.573-3.459 0-1.054-.935-1.73-2.267-1.73-2.008 0-4.533 1.67-4.533 3.459 0 1.094.975 1.73 2.227 1.73z" fill-rule="nonzero"/><path d="m190.133 31.244v-16.619" fill="none" stroke="#000" stroke-width=".47"/><path d="m185.68 34.562c2.048 0 4.573-1.71 4.573-3.459 0-1.054-.934-1.73-2.266-1.73-2.008 0-4.533 1.67-4.533 3.459 0 1.094.974 1.73 2.226 1.73z" fill-rule="nonzero"/></svg>

<?xml version="1.0" encoding="UTF-8" standalone="no"?>
<!DOCTYPE svg PUBLIC "-//W3C//DTD SVG 1.1//EN" "http://www.w3.org/Graphics/SVG/1.1/DTD/svg11.dtd">
<svg width="100%" height="100%" viewBox="0 0 210 38" version="1.1" xmlns="http://www.w3.org/2000/svg" xmlns:xlink="http://www.w3.org/1999/xlink" xml:space="preserve" xmlns:serif="http://www.serif.com/" style="fill-rule:evenodd;clip-rule:evenodd;stroke-linejoin:round;stroke-miterlimit:2;">
    <g>
        <path d="M116.509,9.654L116.509,29.536" style="fill:none;stroke:black;stroke-width:0.78px;"/>
        <path d="M206.131,9.654L206.131,29.536" style="fill:none;stroke:black;stroke-width:0.78px;"/>
        <path d="M208.772,9.654L208.772,29.536" style="fill:none;stroke:black;stroke-width:0.78px;"/>
        <path d="M30.081,16.862L30.081,16.02L28.818,16.02L28.818,11.512L26.314,13.736L26.314,16.02L23.609,16.02C23.909,15.259 24.731,14.217 26.073,12.875C27.295,11.652 27.997,10.57 28.197,9.669L24.771,9.669C24.61,11.632 23.448,14.498 22.226,16.06L22.226,16.862L26.314,16.862C26.314,17.563 26.294,17.964 26.253,18.064C26.133,18.284 25.753,18.425 25.131,18.465L25.091,19.026L30.02,19.026L29.94,18.445C28.978,18.365 28.798,18.264 28.798,17.764C28.798,17.703 28.798,17.583 28.818,17.383L28.818,16.862L30.081,16.862Z" style="fill-rule:nonzero;"/>
        <path d="M30.081,26.936L30.081,26.095L28.818,26.095L28.818,21.586L26.314,23.81L26.314,26.095L23.609,26.095C23.909,25.333 24.731,24.291 26.073,22.949C27.295,21.727 27.997,20.645 28.197,19.743L24.771,19.743C24.61,21.707 23.448,24.572 22.226,26.135L22.226,26.936L26.314,26.936C26.314,27.637 26.294,28.038 26.253,28.138C26.133,28.359 25.753,28.499 25.131,28.539L25.091,29.1L30.02,29.1L29.94,28.519C28.978,28.439 28.798,28.339 28.798,27.838C28.798,27.778 28.798,27.658 28.818,27.457L28.818,26.936L30.081,26.936Z" style="fill-rule:nonzero;"/>
        <path d="M0.015,29.536L209.082,29.536" style="fill:none;stroke:black;stroke-width:0.47px;"/>
        <path d="M0.015,24.565L209.082,24.565" style="fill:none;stroke:black;stroke-width:0.47px;"/>
        <path d="M0.015,19.595L209.082,19.595" style="fill:none;stroke:black;stroke-width:0.47px;"/>
        <path d="M0.015,14.625L209.082,14.625" style="fill:none;stroke:black;stroke-width:0.47px;"/>
        <path d="M0.015,9.654L209.082,9.654" style="fill:none;stroke:black;stroke-width:0.47px;"/>
        <path d="M14.14,28.876L14.896,32.554C14.936,32.773 14.956,32.971 14.956,33.17C14.956,35.119 12.967,36.749 10.82,36.749C10.164,36.749 9.528,36.59 8.931,36.292C10.462,36.133 11.615,35.198 11.615,33.826C11.615,32.614 10.621,31.341 9.349,31.341C7.898,31.341 6.904,32.455 6.904,33.906C6.904,35.934 8.554,37.266 10.542,37.266C13.206,37.266 15.473,35.536 15.473,33.051C15.473,32.494 14.598,28.558 14.618,28.697C16.745,27.663 18.196,25.834 18.196,23.905C18.196,21.261 16.069,19.233 13.425,19.233C13.385,19.233 13.107,19.253 12.629,19.293L11.755,15.098C14.717,12.593 16.069,9.929 16.069,7.006C16.069,4.759 15.174,2.374 13.365,-0.131C11.317,1.519 10.144,4.819 10.144,8.338C10.144,9.591 10.303,10.803 10.582,11.957C6.049,15.754 3.782,19.253 3.782,22.454C3.782,26.212 7.659,29.333 11.874,29.333C12.808,29.333 13.504,29.194 14.14,28.876ZM14.081,2.751C14.737,3.427 15.075,4.223 15.075,5.157C15.075,7.086 13.703,9.253 11.019,11.638C10.88,11.062 10.84,10.426 10.84,9.73C10.84,6.39 12.073,2.712 13.723,2.712C13.862,2.712 13.981,2.731 14.081,2.751ZM14.498,28.061L13.087,21.42C13.365,21.4 13.524,21.38 13.584,21.38C15.294,21.38 16.486,22.991 16.486,24.641C16.486,25.953 15.791,27.106 14.498,28.061ZM12.59,21.5L14.021,28.339C13.325,28.717 12.55,28.876 11.615,28.876C8.395,28.876 5.611,26.47 5.611,23.548C5.611,20.903 7.58,18.18 11.297,15.396L12.132,19.372C10.065,19.81 8.315,21.559 8.315,23.528C8.315,25.198 9.508,26.371 11.297,26.649C10.204,25.973 9.667,25.118 9.667,24.104C9.667,22.732 10.939,21.718 12.59,21.5Z" style="fill-rule:nonzero;"/>
        <path d="M44.593,31.244L44.593,14.625" style="fill:none;stroke:black;stroke-width:0.47px;"/>
        <path d="M40.141,34.562C42.188,34.562 44.713,32.852 44.713,31.103C44.713,30.049 43.779,29.373 42.447,29.373C40.439,29.373 37.914,31.043 37.914,32.832C37.914,33.926 38.888,34.562 40.141,34.562Z" style="fill-rule:nonzero;"/>
        <path d="M64.319,26.274L64.319,9.654" style="fill:none;stroke:black;stroke-width:0.47px;"/>
        <path d="M59.867,29.592C61.915,29.592 64.44,27.882 64.44,26.132C64.44,25.078 63.505,24.402 62.173,24.402C60.165,24.402 57.64,26.073 57.64,27.862C57.64,28.955 58.614,29.592 59.867,29.592Z" style="fill-rule:nonzero;"/>
        <path d="M84.046,23.789L84.046,7.169" style="fill:none;stroke:black;stroke-width:0.47px;"/>
        <path d="M79.593,27.106C81.641,27.106 84.166,25.397 84.166,23.647C84.166,22.593 83.232,21.917 81.9,21.917C79.892,21.917 77.367,23.587 77.367,25.377C77.367,26.47 78.341,27.106 79.593,27.106Z" style="fill-rule:nonzero;"/>
        <path d="M97.248,17.886L97.248,34.506" style="fill:none;stroke:black;stroke-width:0.47px;"/>
        <path d="M99.32,19.651C101.367,19.651 103.892,17.941 103.892,16.191C103.892,15.138 102.958,14.462 101.626,14.462C99.618,14.462 97.093,16.132 97.093,17.921C97.093,19.015 98.067,19.651 99.32,19.651Z" style="fill-rule:nonzero;"/>
        <path d="M130.954,26.274L130.954,9.654" style="fill:none;stroke:black;stroke-width:0.47px;"/>
        <path d="M126.502,29.592C128.549,29.592 131.074,27.882 131.074,26.132C131.074,25.078 130.14,24.402 128.808,24.402C126.8,24.402 124.275,26.073 124.275,27.862C124.275,28.955 125.249,29.592 126.502,29.592Z" style="fill-rule:nonzero;"/>
        <path d="M142.137,34.506L152.699,34.506" style="fill:none;stroke:black;stroke-width:0.78px;"/>
        <path d="M150.68,33.73L150.68,17.11" style="fill:none;stroke:black;stroke-width:0.47px;"/>
        <path d="M146.228,37.047C148.276,37.047 150.801,35.337 150.801,33.588C150.801,32.534 149.866,31.858 148.534,31.858C146.526,31.858 144.001,33.528 144.001,35.318C144.001,36.411 144.975,37.047 146.228,37.047Z" style="fill-rule:nonzero;"/>
        <path d="M170.406,31.244L170.406,14.625" style="fill:none;stroke:black;stroke-width:0.47px;"/>
        <path d="M165.954,34.562C168.002,34.562 170.527,32.852 170.527,31.103C170.527,30.049 169.592,29.373 168.26,29.373C166.252,29.373 163.727,31.043 163.727,32.832C163.727,33.926 164.702,34.562 165.954,34.562Z" style="fill-rule:nonzero;"/>
        <path d="M190.133,31.244L190.133,14.625" style="fill:none;stroke:black;stroke-width:0.47px;"/>
        <path d="M185.68,34.562C187.728,34.562 190.253,32.852 190.253,31.103C190.253,30.049 189.319,29.373 187.987,29.373C185.979,29.373 183.454,31.043 183.454,32.832C183.454,33.926 184.428,34.562 185.68,34.562Z" style="fill-rule:nonzero;"/>
    </g>
</svg>
